X: 29523
T: Ninja And The Pirate, The
R: jig
M: 6/8
K: Aminor
|:A2A ede|fed cdB|A2A E2G|cBA BAG|A2A ede|
fec G2c|1 GAB c2d|edc B3:|2 GAB c2B|ABc Bcd||
|:edc ABc|fed ABf|edc Bce|dcB G3|
c2c AGA|BAB c2c|ABc f2f|1 edc d3:|2 edc dcB||

